img/catalog/catalog green/catalog4.svg

<svg width="285" height="285" viewBox="0 0 285 285" fill="none" xmlns="http://www.w3.org/2000/svg">
<g clip-path="url(#clip0_379_954)">
<path d="M195.278 64.1914C193.851 61.5331 188.975 66.8496 185.107 76.2504C181.238 85.6513 174.541 99.9635 170.84 103.44C167.139 106.917 162.708 103.238 164.126 95.4656C165.544 87.6935 173.274 55.3981 173.072 48.6555C172.871 41.9129 171.646 37.82 169.212 39.0437C166.778 40.2673 158.638 75.8454 154.945 85.8622C151.253 95.8791 149.859 103.44 147.224 103.027C144.589 102.613 145.999 77.069 145.395 69.9129C144.791 62.7568 144.245 36.588 142.785 33.3222C141.325 30.0563 138.278 28.4108 136.852 40.0732C135.425 51.7357 131.976 96.9087 129.735 100.588C127.494 104.267 124.247 99.3559 122.182 92.8158C120.118 86.2757 119.136 57.6597 117.096 52.7483C115.057 47.8369 111.004 49.069 111.222 58.2673C111.44 67.4656 112.439 115.921 112.061 124.09C111.683 132.259 108.805 140.85 106.774 141.466C104.743 142.082 100.899 135.558 98.0293 128.174C95.1591 120.791 95.7969 110.799 91.7267 109.609C87.6565 108.419 90.0987 123.71 90.0987 123.71C90.0987 139.66 98.4405 158.259 101.285 166.234C104.13 174.208 108.192 184.799 111.65 187.693C115.107 190.588 133.201 194.647 140.519 194.647C147.837 194.647 156.783 192.807 165.117 181.145C173.45 169.482 180.164 153.753 181.582 146.394C183 139.035 191.434 96.6808 191.82 89.9298C192.206 83.1787 196.696 66.8496 195.278 64.1914ZM173.928 142.073C171.083 144.529 161.726 150.461 155.633 153.322C149.541 156.183 142.827 155.162 136.927 154.166C131.027 153.17 122.904 143.921 118.464 142.191C114.025 140.461 119.883 138.419 119.883 138.419C131.069 132.293 134.888 130.453 142.542 129.423C149.991 128.589 157.511 130.165 164.009 133.921C169.254 137.187 176.773 139.626 173.928 142.073Z" fill="#333F48"/>
<path d="M147.3 137.188C146.635 136.605 145.783 136.283 144.9 136.283C144.017 136.283 143.165 136.605 142.5 137.188C140.183 141.273 138.111 144.142 142.5 146.386C146.889 148.631 149.935 144.344 150.145 141.787C150.355 139.23 149.935 139.213 147.3 137.188Z" fill="#333F48"/>
</g>
<path d="M114.352 249.5H118.048V244.46H120.856C124.624 244.46 127.648 242.444 127.648 238.556C127.648 235.076 125.224 232.7 121.216 232.7H114.352V249.5ZM118.048 241.172V236.036H120.904C122.752 236.036 123.904 236.924 123.904 238.58C123.904 240.068 122.824 241.172 120.976 241.172H118.048ZM133.071 253.412C135.255 253.412 136.311 252.428 137.295 249.812L142.239 236.636H138.447L135.639 245.396L132.711 236.636H128.847L133.887 249.548C133.575 250.196 133.239 250.388 132.615 250.388C132.135 250.388 131.535 250.172 131.055 249.884L129.831 252.524C130.767 253.076 131.751 253.412 133.071 253.412ZM144.39 249.5H148.038V246.404L149.694 244.604L153.126 249.5H157.446L152.118 241.916L156.846 236.636H152.646L148.038 241.916V236.636H144.39V249.5ZM171.038 236.636H167.606L162.59 244.148V236.636H159.062V249.5H162.494L167.51 242.012V249.5H171.038V236.636Z" fill="#333F48"/>
<defs>
<clipPath id="clip0_379_954">
<rect width="180" height="180" fill="white" transform="translate(52.5 30.5)"/>
</clipPath>
</defs>
</svg>

<svg width="285" height="285" fill="none" xmlns="http://www.w3.org/2000/svg"><g clip-path="url(#a)" fill="#333F48"><path d="M195.278 64.191c-1.427-2.658-6.303 2.659-10.171 12.06-3.869 9.4-10.566 23.712-14.267 27.189-3.701 3.477-8.132-.202-6.714-7.974 1.418-7.772 9.148-40.068 8.946-46.81-.201-6.743-1.426-10.836-3.86-9.612-2.434 1.223-10.574 36.801-14.267 46.818-3.692 10.017-5.086 17.578-7.721 17.165-2.635-.414-1.225-25.958-1.829-33.114-.604-7.156-1.15-33.325-2.61-36.59-1.46-3.267-4.507-4.912-5.933 6.75-1.427 11.663-4.876 56.836-7.117 60.515-2.241 3.679-5.488-1.232-7.553-7.772-2.064-6.54-3.046-35.156-5.086-40.068-2.039-4.911-6.092-3.679-5.874 5.52.218 9.198 1.217 57.653.839 65.822-.378 8.169-3.256 16.76-5.287 17.376-2.031.616-5.875-5.908-8.745-13.292-2.87-7.383-2.232-17.375-6.302-18.565-4.07-1.19-1.628 14.101-1.628 14.101 0 15.95 8.341 34.549 11.186 42.524 2.845 7.974 6.907 18.565 10.365 21.459 3.457 2.895 21.551 6.954 28.869 6.954 7.318 0 16.264-1.84 24.598-13.502 8.333-11.663 15.047-27.392 16.465-34.751 1.418-7.359 9.852-49.713 10.238-56.464.386-6.751 4.876-23.08 3.458-25.739Zm-21.35 77.882c-2.845 2.456-12.202 8.388-18.295 11.249-6.092 2.861-12.806 1.84-18.706.844-5.9-.996-14.023-10.245-18.463-11.975-4.439-1.73 1.419-3.772 1.419-3.772 11.186-6.126 15.005-7.966 22.659-8.996a35.088 35.088 0 0 1 21.467 4.498c5.245 3.266 12.764 5.705 9.919 8.152Z"/><path d="M147.3 137.188a3.64 3.64 0 0 0-2.4-.905 3.64 3.64 0 0 0-2.4.905c-2.317 4.085-4.389 6.954 0 9.198 4.389 2.245 7.435-2.042 7.645-4.599.21-2.557-.21-2.574-2.845-4.599Z"/></g><path d="M114.352 249.5h3.696v-5.04h2.808c3.768 0 6.792-2.016 6.792-5.904 0-3.48-2.424-5.856-6.432-5.856h-6.864v16.8Zm3.696-8.328v-5.136h2.856c1.848 0 3 .888 3 2.544 0 1.488-1.08 2.592-2.928 2.592h-2.928Zm15.023 12.24c2.184 0 3.24-.984 4.224-3.6l4.944-13.176h-3.792l-2.808 8.76-2.928-8.76h-3.864l5.04 12.912c-.312.648-.648.84-1.272.84-.48 0-1.08-.216-1.56-.504l-1.224 2.64c.936.552 1.92.888 3.24.888Zm11.319-3.912h3.648v-3.096l1.656-1.8 3.432 4.896h4.32l-5.328-7.584 4.728-5.28h-4.2l-4.608 5.28v-5.28h-3.648V249.5Zm26.648-12.864h-3.432l-5.016 7.512v-7.512h-3.528V249.5h3.432l5.016-7.488v7.488h3.528v-12.864Z" fill="#333F48"/><defs><clipPath id="a"><path fill="#fff" transform="translate(52.5 30.5)" d="M0 0h180v180H0z"/></clipPath></defs></svg>
